docs/img/filter/air.svg

<svg width="22" height="11" viewBox="0 0 22 11" fill="none" xmlns="http://www.w3.org/2000/svg">
<path fill-rule="evenodd" clip-rule="evenodd" d="M2 2H3V4H5V2H6V4H8V2H20V7C20 8.10457 19.1046 9 18 9H4C2.89543 9 2 8.10457 2 7V2ZM0 0H2H20H22V2V7C22 9.20914 20.2091 11 18 11H4C1.79086 11 0 9.20914 0 7V2V0ZM4 8H18V6H4V8Z" fill="black" fill-opacity="0.9"/>
</svg>

<svg width="22" height="11" fill="none" xmlns="http://www.w3.org/2000/svg"><path fill-rule="evenodd" clip-rule="evenodd" d="M2 2h1v2h2V2h1v2h2V2h12v5a2 2 0 0 1-2 2H4a2 2 0 0 1-2-2V2zM0 0h22v7a4 4 0 0 1-4 4H4a4 4 0 0 1-4-4V0zm4 8h14V6H4v2z" fill="#000" fill-opacity=".9"/></svg>
